assets/icons/exam-type/exam-guest.svg

<svg fill="none" viewBox="0 0 24 24" xmlns="http://www.w3.org/2000/svg" class="Icon Icon-exam-guest"><path d="m13 2h-7c-.53043 0-1.03914.21071-1.41421.58579-.37508.37507-.58579.88378-.58579 1.41421v16c0 .5304.21071 1.0391.58579 1.4142.37507.3751.88378.5858 1.41421.5858h12c.5304 0 1.0391-.2107 1.4142-.5858s.5858-.8838.5858-1.4142v-11z" stroke="currentColor" stroke-linecap="round" stroke-linejoin="round" stroke-width="2"/><path d="m13 2v7h7" stroke="currentColor" stroke-linecap="round" stroke-linejoin="round" stroke-width="2"/><g fill="currentColor"><path d="m16 13.5c0 .2761-.2239.5-.5.5v2c1.3807 0 2.5-1.1193 2.5-2.5zm-.5-.5c.2761 0 .5.2239.5.5h2c0-1.3807-1.1193-2.5-2.5-2.5zm-2.5.5c0 1.3807 1.1193 2.5 2.5 2.5v-2c-.2761 0-.5-.2239-.5-.5zm2 0c0-.2761.2239-.5.5-.5v-2c-1.3807 0-2.5 1.1193-2.5 2.5z"/><path d="m7 16v-1h-1v1zm0 3h-1v1h1zm3-3h1v-1h-1zm0 3v1h1v-1zm-4-3v3h2v-3zm1 1h3v-2h-3zm2-1v3h2v-3zm1 2h-3v2h3z"/></g></svg>

<svg  stroke="currentColor" viewBox="0 0 24 24" fill="none" xmlns="http://www.w3.org/2000/svg" class="Icon Icon-exam-fails"> <path d="M13 2H6C5.46957 2 4.96086 2.21071 4.58579 2.58579C4.21071 2.96086 4 3.46957 4 4V20C4 20.5304 4.21071 21.0391 4.58579 21.4142C4.96086 21.7893 5.46957 22 6 22H18C18.5304 22 19.0391 21.7893 19.4142 21.4142C19.7893 21.0391 20 20.5304 20 20V9L13 2Z" stroke-width="2" stroke-linecap="round" stroke-linejoin="round"/> <path d="M13 2V9H20" stroke-width="2" stroke-linecap="round" stroke-linejoin="round"/> <path d="M16 13.5C16 13.7761 15.7761 14 15.5 14V16C16.8807 16 18 14.8807 18 13.5H16ZM15.5 13C15.7761 13 16 13.2239 16 13.5H18C18 12.1193 16.8807 11 15.5 11V13ZM13 13.5C13 14.8807 14.1193 16 15.5 16V14C15.2239 14 15 13.7761 15 13.5H13ZM15 13.5C15 13.2239 15.2239 13 15.5 13V11C14.1193 11 13 12.1193 13 13.5H15Z" fill="#383641"/> <path d="M7 16V15H6V16H7ZM7 19H6V20H7V19ZM10 16H11V15H10V16ZM10 19V20H11V19H10ZM6 16V19H8V16H6ZM7 17H10V15H7V17ZM9 16V19H11V16H9ZM10 18H7V20H10V18Z" fill="#383641"/> </svg>
